!!!OTL: Ein Abendreihen vom Herrn Christo, fuer christliche Jungfraeulein vorzusingen.
!!!ARE: Europa, Mitteleuropa, Deutschland
!!!SCT: A0287
!!!TXL: @@DE
!!!YEM: Copyright 1995, estate of Helmut Schaffrath.
**kern	**text
*M4/4	*
*k[b-]	*
*F:ion	*
!LO:TX:a:t=jon. (F dur.)	!
{4f	Jhr
=1	=1
4cc	Schweſter-
4cc	.
4f	-lein,
4f	ihr
=2	=2
4cc	Schweſter-
4cc	.
2f}	-lein,
=3	=3
{2cc	ihr
4dd	al-
4cc	-ler-
=4	=4
4b-/	-liebſten
4a	.
4g	Gſpielen
4g	.
=5	=5
2f	mein,
4r}	.
{4g	Wir
=6	=6
4g	wolln
4g	ſin-
4g	-gen
4f	ein
=7	=7
4e	A-
4f	-bendreihn
2g	.
=8	=8
4r}	.
{4b-/	von
4a	unſerm
4f	.
=9	=9
4g	Her-
4g	-ren
4f	Je-
4f	-ſu-
=10	=10
2f	-lein.
4r}	.
==	==
!!!GTL: Tanz- und Kranzlieder
!!!AGN: Romanze, Ballade, Lied
!! Nik. Hermann Historien von der Sindflut 1563.
!!!ONB: ESAC (Essen Associative Code) Database: ALTDEU
!!!AMT: simple quadruple
!!!AIN: vox
!!!EED: Helmut Schaffrath
!!!EEV: 1.0
!!!AMD: Ionian
!!!URL-scan: https://rosdok.uni-rostock.de/mcrviewer/recordIdentifier/rosdok_ppn738218359/iview2/phys_0443.iview2?x=-495.6391625615763&y=594.0270935983863&scale=0.4629418472063854&rotation=0&layout=singlePageLayout&logicalDiv=log_0012
!!!ENC: Anna Maria Matuszewska
!!!EEV: 2024/12/03
*-	*-
